!!!OTL: Kindelwiegenlied. / (16. Jahrh.)
!!!ARE: Europa, Mitteleuropa, Deutschland
!!!SCT: A0524
!!!TXL: @@GMH
!!!YEM: Copyright 1995, estate of Helmut Schaffrath.
**kern	**text
*M3/2	*
*met(3)	*
*k[b-]	*
*F:ion	*
!LO:TX:a:t=jon.	!
!LO:TX:a:t=P:2r, 2r in the source:problem	!
2ryy	.
2ryy	.
{2f	Laßt
=1	=1
1f	vns
2g	dʒ
=2	=2
1a	Kind-
2b-/	-lein
=3	=3
(2.g	wie-
4f	.
2g)	.
=4	=4
1a}	-gen,
{2f	das
=5	=5
1f	Hertʒ
2g	ʒum
=6	=6
1a	Krip-
2b-	-lein
=7	=7
(2.g	bie-
4f	.
2g)	.
=8	=8
1a}	-gen,
{2a	Laßt
=9	=9
1cc	vns
2b-	im
=10	=10
1a	Geiſt
2g	er-
=11	=11
(2.a	-frew-
4g	.
2a)	.
=12	=12
1g}	-en,
{2g	das
=13	=13
1cc	Kindlein
2b-	.
=14	=14
1a	be-
2g	-ne-
=15	=15
(2.a	-dei-
4g	.
2a)	.
=16	=16
1g}	-en.
{2g	O
=17	=17
2.c	Je-
4d	-ſulein
2e	.
=18	=18
1f	ſüß,
2a	o
=19	=19
2.g	Je-
4f	-ſu-
2g	-lein
=20	=20
1f}	ſüß!
==	==
!!!GTL: Geistliche Volkslieder
!!!AGN: Romanze, Ballade, Lied, religioeses Lied
!! Paderborner Gsgb 1609.
!!!ONB: ESAC (Essen Associative Code) Database: ALTDEU
!!!AMT: simple triple
!!!AIN: vox
!!!EED: Helmut Schaffrath
!!!EEV: 1.0
!!!AMD: Ionian
!!!URL-scan: https://rosdok.uni-rostock.de/mcrviewer/recordIdentifier/rosdok_ppn738218359/iview2/phys_0702.iview2?x=-1272.8135649766991&y=1551.6449346528389&scale=0.3197610882076923&rotation=0&layout=singlePageLayout&logicalDiv=log_0018
!!!ENC: Anna Maria Matuszewska
!!!EEV: 2024/19/03
*-	*-
